X:1
T:Title
%%score 1 2
L:1/8
Q:1/4=70
M:3/4
K:Ab
V:1 treble nm="Strings 1, Soprano"
V:2 bass nm="Strings 1, Bass"
V:1
 z2 z2 [CE][CE] | [Ec]3 [Ec] [DB][CA] | [DF] [FA]3 [DF][DF] | [CE]4 [DE]2 | [CE]4 [CE][CE] | %5
w: 1.~When~ the~|last~ earth tie~ is~|sun dered,~ And~ my~|soul~ set~|free;~ When~ life's~|
 [Ec]3 [Ec] [DB][CA] | [DF] [FA]3 [DF][DF] | [CE]4 [DE]2 | [CE]4 [Ec][Ec] | [DB]3 [C=A] [DB][Ec] | %10
w: cares~ and~ toils~ are~|num bered,~ I~ shall~|haste~ to~|be~ With~ my~|Lord,~ in~ realms~ of~|
 [CA]4 [CE][CE] | [DF]3 [DA] [DA][DF] | [CE]4 [Ec][Ec] | [EB]3 [Ec] [Ed][EB] | [Ec]4 [_CA][CF] | %15
w: light,~ Where~ no~|sin~ can~ ev er~|blight,~ Where~ ne'er~|comes~ the~ shades~ of~|night;~ To~ His~|
 [CE]4 [DE]2 | [CE]4 z2 |] %17
w: arms~ I'll~|flee.~|
V:2
 z2 z2 [A,,A,][A,,A,] | [A,,A,]3 [A,,A,] [A,,A,][A,,A,] | [D,A,] [D,A,]3 [D,A,][D,A,] | %3
 [E,A,]4 [E,,E,G,]2 | [A,,A,]4 [A,,A,][A,,A,] | [A,,A,]3 [A,,A,] [A,,A,][A,,A,] | %6
 [D,A,] [D,A,]3 [D,A,][D,A,] | [E,A,]4 [E,,E,G,]2 | [A,,A,]4 [A,,A,][A,,A,] | %9
 [E,G,]3 [E,G,] [E,G,][E,G,] | [A,,A,]4 [A,,A,][A,,A,] | [D,A,]3 [D,F,] [D,F,][D,A,] | %12
 [A,,A,]4 [A,,A,][A,,A,] | [E,G,]3 [E,A,] [E,B,][E,G,] | A,4 [=D,F,][D,A,] | [E,A,]4 [E,,E,G,]2 | %16
 [A,,A,]4 z2 |] %17

